public/operators/withbg/stake.svg

<svg width="150" height="120" viewBox="0 0 150 120" fill="none" xmlns="http://www.w3.org/2000/svg">
<rect width="150" height="120" fill="#1A2C39"/>
<path d="M32.2888 49.7598C32.2643 43.3577 36.4126 39.8071 44.0285 39.7805C49.509 39.7611 50.4886 43.302 50.4886 44.5888C50.4886 47.0534 46.9573 49.6679 46.9573 49.6679C46.9573 49.6679 47.1533 51.2038 50.1849 51.1917C53.2166 51.1796 56.1699 49.2035 56.1528 44.2574C56.1381 38.576 50.1115 35.9784 44.1534 36.0001C39.17 36.0171 25.9536 36.7088 26.0001 49.6679C26.0442 61.1783 48.0397 62.1941 48.0569 69.5638C48.0863 77.5671 38.9961 79.7221 35.9204 79.7221C32.8446 79.7221 31.5933 77.5719 31.5884 76.3916C31.5663 69.9096 38.0974 68.1053 38.0974 68.1053C38.0974 67.6216 37.7154 65.4666 35.1857 65.4762C28.6694 65.4883 26.0736 71.0222 26.0932 76.4255C26.1103 81.0209 29.3991 83.8894 34.3654 83.8701C43.862 83.8362 54.5708 79.2601 54.5316 69.097C54.4973 59.5917 32.3157 57.1101 32.2888 49.7598Z" fill="white"/>
<path d="M122.82 75.2258C122.744 75.0444 122.531 75.0879 122.249 75.3177C121.172 76.1957 118.708 78.682 112.944 78.7038C102.433 78.7425 100.609 61.633 100.609 61.633C100.609 61.633 108.619 55.7266 109.871 53.3442C111.122 50.9619 107.14 50.4419 107.14 50.4419C107.14 50.4419 101.537 57.1754 97.5651 59.149C97.9961 56.22 100.935 49.5445 101.104 45.7061C101.273 41.8677 96.4239 42.8038 95.6501 43.1714C95.6501 44.8475 91.367 60.0633 89.8071 68.427C88.8888 69.8781 87.5762 71.5373 86.4008 71.5398C85.72 71.5398 85.4702 70.2942 85.4629 68.5092C85.4629 66.0325 86.844 62.0635 86.8342 59.6521C86.8342 57.9832 86.0579 57.8841 85.3894 57.8865C85.2449 57.8865 84.4417 57.9082 84.2948 57.9082C82.5806 57.9082 83.1438 56.4571 81.601 56.4716C76.8797 56.4885 70.8653 61.5798 70.6033 69.2638C69.0091 70.3062 66.7782 71.6196 65.6395 71.6244C64.4444 71.6244 64.1481 70.5336 64.1457 69.5903C64.1457 67.9336 66.859 58.0896 66.859 58.0896C66.859 58.0896 70.3143 57.2141 71.8228 56.9263C72.964 56.7062 73.2921 56.6239 73.7353 56.0797C74.1786 55.5355 75.0455 54.4109 75.7458 53.3999C76.4462 52.3889 75.7581 51.6077 74.4627 51.6125C72.7632 51.6125 68.2156 52.6767 68.2156 52.6767C68.2156 52.6767 70.4 43.3746 70.3976 43.1859C70.3951 42.9973 70.1527 42.8981 69.7829 42.9005C68.9552 42.9005 67.4785 43.3407 66.5333 43.6745C65.086 44.1848 63.9081 45.9359 63.6706 46.751C63.4331 47.5661 61.7972 53.9489 61.7972 53.9489C61.7972 53.9489 53.0377 56.9359 51.8402 57.3834C51.8045 57.3955 51.7735 57.4183 51.7515 57.4487C51.7296 57.479 51.7178 57.5154 51.7178 57.5527C51.7178 57.6301 52.7194 61.4225 54.7739 61.408C56.2432 61.408 60.5606 59.6618 60.5606 59.6618C60.5606 59.6618 58.3419 68.3689 58.3566 71.2713C58.3566 73.1336 59.2455 75.3153 62.9286 75.3032C66.357 75.3032 69.3568 73.5545 71.0367 72.3379C71.955 74.6332 74.1247 75.2621 75.6063 75.2572C78.9269 75.2572 81.4835 72.6402 81.8116 72.2895C82.2426 73.2957 83.2589 75.2282 85.5804 75.2209C86.893 75.2209 88.2521 73.7698 89.2537 72.3621C89.2347 72.6546 89.2388 72.9482 89.2659 73.2401C89.6675 76.8487 95.0917 74.7275 95.388 74.2245C95.5717 71.6147 95.4566 66.2792 96.5121 62.985C97.9128 74.222 103.227 81.7803 112.78 81.7465C118.121 81.7271 120.861 80.2106 121.995 78.9602C122.45 78.4628 122.766 77.8565 122.91 77.2014C123.055 76.5463 123.024 75.8653 122.82 75.2258ZM76.985 71.5204C72.3983 71.5373 78.3882 59.7948 82.3014 59.7803C82.3063 61.2944 82.2206 71.5035 76.985 71.5204Z" fill="white"/>
<path d="M114.222 75.1193C118.363 75.1048 121.569 72.4129 122.156 71.5373C122.916 70.3981 121.275 68.6785 120.753 68.7075C119.446 69.9434 118.079 71.4382 115.011 71.4478C111.399 71.4623 112.217 67.5369 112.217 67.5369C112.217 67.5369 119.169 68.4245 121.963 63.4881C122.857 61.9087 122.893 59.7246 122.534 58.7838C122.174 57.8429 120.151 56.1015 116.933 56.3651C112.981 56.6941 108 60.7647 106.905 65.6527C106.026 69.5855 107.689 75.1435 114.222 75.1193ZM118.63 58.6483C119.281 58.6266 119.223 59.6859 119.049 60.7937C118.804 62.2957 116.715 66.1147 112.728 65.9648C113.005 63.742 115.971 58.7354 118.637 58.6483H118.63Z" fill="white"/>
</svg>

<svg xmlns="http://www.w3.org/2000/svg" width="150" height="120" fill="none"><path fill="#1A2C39" d="M0 0h150v120H0z"/><path fill="#fff" d="M32.29 49.76c-.03-6.4 4.12-9.95 11.74-9.98 5.48-.02 6.46 3.52 6.46 4.8 0 2.47-3.53 5.09-3.53 5.09s.2 1.53 3.22 1.52c3.04-.01 5.99-1.99 5.97-6.93-.01-5.68-6.04-8.28-12-8.26-4.98.02-18.2.7-18.15 13.67.04 11.5 22.04 12.52 22.06 19.9.03 8-9.06 10.15-12.14 10.15s-4.33-2.15-4.33-3.33c-.02-6.48 6.5-8.28 6.5-8.28 0-.49-.37-2.64-2.9-2.63-6.52 0-9.12 5.54-9.1 10.95.02 4.6 3.3 7.46 8.28 7.44 9.5-.03 20.2-4.61 20.16-14.77-.03-9.5-22.21-11.99-22.24-19.34Z"/><path fill="#fff" d="M122.82 75.23c-.08-.19-.29-.14-.57.09-1.08.88-3.54 3.36-9.3 3.38-10.52.04-12.34-17.07-12.34-17.07s8-5.9 9.26-8.29c1.25-2.38-2.73-2.9-2.73-2.9s-5.6 6.74-9.57 8.7c.43-2.92 3.37-9.6 3.53-13.43.17-3.84-4.68-2.9-5.45-2.54 0 1.68-4.28 16.9-5.84 25.26-.92 1.45-2.23 3.1-3.4 3.11-.69 0-.94-1.25-.95-3.03 0-2.48 1.38-6.45 1.37-8.86 0-1.67-.77-1.77-1.44-1.76l-1.1.02c-1.7 0-1.15-1.45-2.69-1.44-4.72.02-10.73 5.11-11 12.8-1.6 1.04-3.82 2.35-4.96 2.35-1.2 0-1.5-1.09-1.5-2.03 0-1.66 2.72-11.5 2.72-11.5s3.45-.88 4.96-1.16c1.14-.22 1.47-.3 1.92-.85.44-.54 1.3-1.67 2-2.68.7-1.01.02-1.8-1.28-1.79-1.7 0-6.24 1.07-6.24 1.07s2.18-9.3 2.18-9.5c0-.18-.25-.28-.62-.28-.82 0-2.3.44-3.25.77-1.44.51-2.62 2.27-2.86 3.08-.24.82-1.87 7.2-1.87 7.2s-8.76 2.99-9.96 3.43a.18.18 0 0 0-.12.17c0 .08 1 3.87 3.05 3.86 1.47 0 5.8-1.75 5.8-1.75s-2.23 8.7-2.21 11.61c0 1.86.89 4.05 4.57 4.03 3.43 0 6.43-1.75 8.1-2.96a4.75 4.75 0 0 0 4.58 2.92c3.32 0 5.87-2.62 6.2-2.97.43 1 1.45 2.94 3.77 2.93 1.31 0 2.67-1.45 3.67-2.86-.02.3-.01.59.02.88.4 3.6 5.82 1.49 6.12.98.18-2.6.07-7.94 1.12-11.23 1.4 11.23 6.72 18.79 16.27 18.76 5.34-.02 8.08-1.54 9.22-2.79a3.82 3.82 0 0 0 .82-3.73Zm-45.83-3.71c-4.6.02 1.4-11.73 5.31-11.74 0 1.51-.08 11.72-5.31 11.74Z"/><path fill="#fff" d="M114.22 75.12c4.14-.02 7.35-2.7 7.94-3.58.76-1.14-.88-2.86-1.4-2.83-1.31 1.23-2.68 2.73-5.75 2.74-3.61.01-2.8-3.91-2.8-3.91s6.96.88 9.75-4.05c.9-1.58.93-3.77.57-4.7-.36-.95-2.38-2.69-5.6-2.42-3.95.32-8.93 4.4-10.03 9.28-.87 3.94.79 9.5 7.32 9.47Zm4.41-16.47c.65-.02.6 1.04.42 2.14-.25 1.5-2.33 5.32-6.32 5.17.27-2.22 3.24-7.22 5.9-7.31Z"/></svg>
